X:1
T:Tiverton, CM
T:Tiverton, CM
T:Rev. J. Grigg, ca. 1791
T:Public Domain Courtesy of the Cyber Hymnal™
C:Rev. J. Grigg, ca. 1791
Z:Public Domain
Z:Courtesy of the Cyber Hymnal™
%%score ( 1 2 ) ( 3 4 )
L:1/8
Q:1/4=113
M:4/4
K:Bb
V:1 treble 
V:2 treble 
V:3 bass 
V:4 bass 
V:1
 [DF]2 | [FB]2 [Fc]2 [Fd]2 [FB]2 | [FG]2 [EA]2 [DB]2 [Fd]2 | [Fc]2 (FB) [FA]2 [=EG]2 | F6 [Fc]2 | %5
 (BA) (GF) [FB]2 (dd) | [Fe]2 [Fd]2 [Fc]2 [DB]2 | F2 ([EG][Ge]) d2 z x | [DB]6 |] %9
V:2
 x2 | x8 | x8 | x2 F2 x4 | F6 x2 | F2 C2 x F2 x | x8 | F2 F3 (c2 E) | x6 |] %9
V:3
 [B,,B,]2 | [D,B,]2 [F,A,]2 B,2 [D,B,]2 | [E,B,]2 F,2 [B,,F,]2 [B,,B,]2 | %3
 [A,,C]2 [B,,D]2 [C,C]2 (CB,) | [F,A,]6 [F,A,]2 | [F,C]2 [E,A,]2 [D,B,]2 ([C,A,][B,,B,]) | %6
 [A,,C]2 [B,,B,]2 [F,A,]2 [G,B,]2 | [D,B,]2 B,2 [F,B,]2 [F,A,]2 | [B,,B,]6 |] %9
V:4
 x2 | x4 B,2 x2 | x2 F,2 x4 | x6 C,2 | x8 | x8 | x8 | x2 (E,C,) x4 | x6 |] %9

